images/icons/Iconmenyearwhite.svg

<svg width="14" height="18" viewBox="0 0 14 18" fill="none" xmlns="http://www.w3.org/2000/svg">
<path fill-rule="evenodd" clip-rule="evenodd" d="M8.87435 1.08333C8.87435 0.968274 8.78108 0.875 8.66602 0.875H2.83268C1.56703 0.875 0.541016 1.90102 0.541016 3.16667V14.8333C0.541016 16.099 1.56703 17.125 2.83268 17.125H11.166C12.4317 17.125 13.4577 16.099 13.4577 14.8333V6.62255C13.4577 6.50749 13.3644 6.41422 13.2493 6.41422H9.49935C9.15417 6.41422 8.87435 6.13439 8.87435 5.78922V1.08333ZM6.99935 7.33333C6.07887 7.33333 5.33268 8.07953 5.33268 9C5.33268 9.92047 6.07887 10.6667 6.99935 10.6667C7.91982 10.6667 8.66602 9.92047 8.66602 9C8.66602 8.07953 7.91982 7.33333 6.99935 7.33333ZM3.66602 14.4167C3.66602 13.036 4.7853 11.9167 6.16602 11.9167H7.83268C9.21339 11.9167 10.3327 13.036 10.3327 14.4167C10.3327 14.8769 9.95959 15.25 9.49935 15.25H4.49935C4.03911 15.25 3.66602 14.8769 3.66602 14.4167Z" fill="white"/>
<path d="M10.1243 1.35345C10.1243 1.1997 10.2849 1.10208 10.4045 1.19866C10.5053 1.28 10.5958 1.3753 10.6731 1.48296L13.1841 4.98121C13.2413 5.06085 13.1793 5.16422 13.0813 5.16422H10.3327C10.2176 5.16422 10.1243 5.07094 10.1243 4.95588V1.35345Z" fill="white"/>
</svg>

<svg width="14" height="18" fill="none" xmlns="http://www.w3.org/2000/svg"><path fill-rule="evenodd" clip-rule="evenodd" d="M8.874 1.083a.208.208 0 0 0-.208-.208H2.833A2.292 2.292 0 0 0 .54 3.167v11.666a2.292 2.292 0 0 0 2.292 2.292h8.333a2.292 2.292 0 0 0 2.292-2.292v-8.21a.208.208 0 0 0-.209-.209H9.5a.625.625 0 0 1-.625-.625V1.083ZM7 7.333a1.667 1.667 0 1 0 0 3.334 1.667 1.667 0 0 0 0-3.334Zm-3.333 7.084a2.5 2.5 0 0 1 2.5-2.5h1.667a2.5 2.5 0 0 1 2.5 2.5c0 .46-.373.833-.834.833h-5a.833.833 0 0 1-.833-.833Z" fill="#fff"/><path d="M10.124 1.353c0-.153.16-.25.28-.154.101.081.192.176.27.284l2.51 3.498c.057.08-.005.183-.103.183h-2.748a.208.208 0 0 1-.209-.208V1.353Z" fill="#fff"/></svg>
